X:15
T:Belltable Jig
M:6/8
L:1/8
Q:120
S:THSP
R:jig
K:D
"D"Add dcB|ABG FED|~F3 FED|"A"~E3 EFG|
"D"Add dcB|ABG FED|dfa "A"gec|edc "D"d2B:|:
"D"Adf ~a3|agf "G"efg|"D"~f3 ged|"A"cdc "G"BcB|
"D"Adf ~a3|agf "G"efg|"D"~f3 "G"gec|"A"edc "D"d2B:||
